_includes/icons/ios-forward-arrow.svg

<svg fill="#666" height="50" viewBox="0 0 50 50" width="50" xmlns="http://www.w3.org/2000/svg"><path d="m28.875 11c-.503906.0625-.878906.492188-.875 1v7.0625c-11.511719.351563-17.71875 6.445313-20.78125 12.5-3.105469 6.136719-3.214844 12.121094-3.21875 12.3125v.0625.0625c-.015625.550781.417969 1.015625.96875 1.03125s1.015625-.417969 1.03125-.96875v-.0625c.007813-.09375.230469-3.121094 3.09375-6.34375 2.8125-3.160156 8.300781-6.347656 18.90625-6.5625v6.90625c0 .382813.21875.734375.566406.902344.347657.167969.757813.121094 1.058594-.121094l16-13c.238281-.191406.375-.476562.375-.78125 0-.304687-.136719-.589844-.375-.78125l-16-13c-.210937-.171875-.480469-.25-.75-.21875zm1.125 3.09375 13.40625 10.90625-13.40625 10.90625v-5.90625c0-.550781-.449219-1-1-1-11.753906 0-18.089844 3.613281-21.40625 7.34375-.125.140625-.195312.265625-.3125.40625.421875-1.375.976563-2.84375 1.71875-4.3125 2.917969-5.765625 8.488281-11.4375 20-11.4375.550781 0 1-.449219 1-1z"/></svg>

<svg xmlns="http://www.w3.org/2000/svg" viewBox="0 0 50 50" width="50" height="50" fill="#666"><path d="M 28.875 11 C 28.371094 11.0625 27.996094 11.492188 28 12 L 28 19.0625 C 16.488281 19.414063 10.28125 25.507813 7.21875 31.5625 C 4.113281 37.699219 4.003906 43.683594 4 43.875 C 4 43.875 4 43.9375 4 43.9375 L 4 44 C 3.984375 44.550781 4.417969 45.015625 4.96875 45.03125 C 5.519531 45.046875 5.984375 44.613281 6 44.0625 C 6 44.0625 6 44 6 44 C 6.007813 43.90625 6.230469 40.878906 9.09375 37.65625 C 11.90625 34.496094 17.394531 31.308594 28 31.09375 L 28 38 C 28 38.382813 28.21875 38.734375 28.566406 38.902344 C 28.914063 39.070313 29.324219 39.023438 29.625 38.78125 L 45.625 25.78125 C 45.863281 25.589844 46 25.304688 46 25 C 46 24.695313 45.863281 24.410156 45.625 24.21875 L 29.625 11.21875 C 29.414063 11.046875 29.144531 10.96875 28.875 11 Z M 30 14.09375 L 43.40625 25 L 30 35.90625 L 30 30 C 30 29.449219 29.550781 29 29 29 C 17.246094 29 10.910156 32.613281 7.59375 36.34375 C 7.46875 36.484375 7.398438 36.609375 7.28125 36.75 C 7.703125 35.375 8.257813 33.90625 9 32.4375 C 11.917969 26.671875 17.488281 21 29 21 C 29.550781 21 30 20.550781 30 20 Z"/></svg>
